flaticon/constructions/plumbering.svg

<svg xmlns="http://www.w3.org/2000/svg" width="32" height="32" viewBox="0 0 24 24">
    <path d="M 23.199219 20.800781 L 22.800781 20.800781 L 22.800781 18.800781 C 22.800781 12.320312 17.640625 7 11.199219 6.800781 L 11.199219 3.199219 L 11.601562 3.199219 C 12.039062 3.199219 12.398438 2.839844 12.398438 2.398438 L 12.398438 0.800781 C 12.398438 0.359375 12.039062 0 11.601562 0 L 4.398438 0 C 3.960938 0 3.601562 0.359375 3.601562 0.800781 L 3.601562 2.398438 C 3.601562 2.839844 3.960938 3.199219 4.398438 3.199219 L 4.800781 3.199219 L 4.800781 6.800781 L 3.199219 6.800781 L 3.199219 6.398438 C 3.199219 5.960938 2.839844 5.601562 2.398438 5.601562 L 0.800781 5.601562 C 0.359375 5.601562 0 5.960938 0 6.398438 L 0 13.601562 C 0 14.039062 0.359375 14.398438 0.800781 14.398438 L 2.398438 14.398438 C 2.839844 14.398438 3.199219 14.039062 3.199219 13.601562 L 3.199219 13.199219 L 10.800781 13.199219 C 13.878906 13.199219 16.398438 15.71875 16.398438 18.800781 L 16.398438 20.800781 L 16 20.800781 C 15.558594 20.800781 15.199219 21.160156 15.199219 21.601562 L 15.199219 23.199219 C 15.199219 23.640625 15.558594 24 16 24 L 23.199219 24 C 23.640625 24 24 23.640625 24 23.199219 L 24 21.601562 C 24 21.160156 23.640625 20.800781 23.199219 20.800781 Z M 4.398438 0.800781 L 11.601562 0.800781 L 11.601562 2.398438 L 4.398438 2.398438 Z M 2.398438 13.601562 L 0.800781 13.601562 L 0.800781 6.398438 L 2.398438 6.398438 Z M 10.800781 12.398438 L 3.199219 12.398438 L 3.199219 7.601562 L 5.199219 7.601562 C 5.441406 7.601562 5.601562 7.441406 5.601562 7.199219 L 5.601562 3.199219 L 10.398438 3.199219 L 10.398438 7.199219 C 10.398438 7.441406 10.558594 7.601562 10.800781 7.601562 C 16.960938 7.601562 22 12.640625 22 18.800781 L 22 20.800781 L 21.199219 20.800781 L 21.199219 19.601562 C 21.199219 19.359375 21.039062 19.199219 20.800781 19.199219 C 20.558594 19.199219 20.398438 19.359375 20.398438 19.601562 L 20.398438 20.800781 L 17.199219 20.800781 L 17.199219 18.800781 C 17.199219 15.28125 14.320312 12.398438 10.800781 12.398438 Z M 23.199219 23.199219 L 16 23.199219 L 16 21.601562 L 23.199219 21.601562 Z M 23.199219 23.199219"/>
    <path d="M19.441406 14.558594C19.519531 14.71875 19.640625 14.800781 19.800781 14.800781 19.839844 14.800781 19.921875 14.800781 19.960938 14.71875 20.160156 14.640625 20.238281 14.398438 20.160156 14.199219 19.71875 13.320312 19.121094 12.480469 18.441406 11.71875 18.28125 11.519531 18.039062 11.519531 17.878906 11.679688 17.679688 11.839844 17.679688 12.078125 17.839844 12.238281 18.480469 12.960938 19.039062 13.71875 19.441406 14.558594zM17.519531 11.359375C17.679688 11.199219 17.640625 10.960938 17.480469 10.800781 16.601562 10.078125 15.601562 9.480469 14.558594 9.078125 14.359375 9 14.121094 9.121094 14.039062 9.320312 13.960938 9.519531 14.078125 9.761719 14.28125 9.839844 15.238281 10.238281 16.160156 10.761719 16.960938 11.441406 17 11.480469 17.121094 11.519531 17.199219 11.519531 17.320312 11.519531 17.441406 11.480469 17.519531 11.359375zM9.199219 8.398438C8.960938 8.398438 8.800781 8.558594 8.800781 8.800781 8.800781 9.039062 8.960938 9.199219 9.199219 9.199219 9.441406 9.199219 9.601562 9.039062 9.601562 8.800781 9.601562 8.558594 9.441406 8.398438 9.199219 8.398438zM9.199219 4C8.960938 4 8.800781 4.160156 8.800781 4.398438L8.800781 6.800781C8.800781 7.039062 8.960938 7.199219 9.199219 7.199219 9.441406 7.199219 9.601562 7.039062 9.601562 6.800781L9.601562 4.398438C9.601562 4.160156 9.441406 4 9.199219 4zM9.199219 4"/>
</svg>

<svg xmlns="http://www.w3.org/2000/svg" width="32" height="32" viewBox="0 0 24 24">
    <path d="M23.2 20.8h-.4v-2c0-6.48-5.16-11.8-11.6-12V3.2h.402c.437 0 .796-.36.796-.802V.801c0-.442-.359-.801-.796-.801H4.398a.801.801 0 0 0-.796.8v1.598c0 .442.359.801.796.801h.403v3.602H3.199v-.403a.801.801 0 0 0-.8-.796H.8c-.442 0-.801.359-.801.796v7.204c0 .437.36.796.8.796h1.598c.442 0 .801-.359.801-.796v-.403h7.602c3.078 0 5.597 2.52 5.597 5.602v2H16c-.441 0-.8.36-.8.8V23.2c0 .442.359.801.8.801h7.2c.44 0 .8-.36.8-.8v-1.598c0-.442-.36-.801-.8-.801zM4.397.8h7.204v1.598H4.398zm-2 12.802H.801V6.398h1.597zm8.403-1.204H3.199V7.602h2c.242 0 .403-.16.403-.403v-4h4.796v4c0 .242.16.403.403.403C16.96 7.602 22 12.64 22 18.8v2h-.8v-1.2c0-.242-.16-.402-.4-.402-.241 0-.402.16-.402.403V20.8H17.2v-2c0-3.52-2.879-6.403-6.398-6.403zM23.199 23.2H16v-1.597h7.2zm0 0"/>
    <path d="M19.441 14.559c.079.16.2.242.36.242.039 0 .12 0 .16-.082.2-.078.277-.32.2-.52-.442-.879-1.04-1.719-1.72-2.48-.16-.2-.402-.2-.562-.04-.2.16-.2.4-.04.56.641.722 1.2 1.48 1.602 2.32zm0 0M17.52 11.36c.16-.16.12-.4-.04-.56a10.742 10.742 0 0 0-2.921-1.722c-.2-.078-.438.043-.52.242-.078.2.04.442.242.52.957.398 1.88.922 2.68 1.601.039.04.16.079.238.079.121 0 .242-.04.32-.16zm0 0M9.2 8.398c-.24 0-.4.16-.4.403 0 .238.16.398.4.398.241 0 .402-.16.402-.398 0-.242-.16-.403-.403-.403zm0 0M9.2 4c-.24 0-.4.16-.4.398v2.403c0 .238.16.398.4.398.241 0 .402-.16.402-.398V4.398c0-.238-.16-.398-.403-.398zm0 0"/>
</svg>
